;generated by ffslicer 2.4.3 05/12/24 03:37:47
;gcode_flavor: flashforge
;machine_type: Guider II S Series
;right_extruder_material: PLA
;right_extruder_material_density: 1.24
;filament_diameter0: 1.75
;right_extruder_temperature: 210
;layer_height: 0.18
;perimeter_shells: 2
;top_solid_layers: 3
;bottom_solid_layers: 3
;fill_density: 5%
;fill_pattern: hexagon
;base_print_speed: 60
;travel_speed: 80
;platform_temperature: 30
;right_extruder_temperature_raft0: 0
;right_extruder_temperature_reset: 
;left_extruder_temperature_reset: 
;layer_total_count: 266
;start gcode
N1 M118 X30.89 Y15.50 Z48.10 T0
N2 M140 S30 T0
N3 M104 S210 T0
N4 M104 S0 T1
N5 M107
N6 G90
N7 G28
N8 M132 X Y Z A B
N9 G1 Z50.000 F420
N10 G161 X Y F3300
N11 M7 T0
N12 M6 T0
N13 M651 S255
;layer_count: 266
N14 M108 T0
N15 G1 X-26.42 Y-11.28 F4800
;preExtrude:0.20
N16 G1 Z0.200 F420
;structure:pre-extrude
N17 G1 X-26.42 Y-11.28 F4800
N18 G1 X-26.09 Y-11.43 E0.0482 F1200
N19 G1 X-24.82 Y-11.65 E0.2197
N20 G1 X-2.95 Y-12.98 E3.1347
N21 G1 X-0.75 Y-13.11 E3.4279
N22 G1 X0.47 Y-13.12 E3.5902
N23 G1 X1.70 Y-13.06 E3.7540
N24 G1 X2.87 Y-12.93 E3.9106
N25 G1 X4.08 Y-12.72 E4.0740
N26 G1 X5.23 Y-12.44 E4.2315
N27 G1 X6.30 Y-12.12 E4.3801
N28 G1 X7.44 Y-11.71 E4.5413
N29 G1 X8.56 Y-11.23 E4.7034
N30 G1 X9.62 Y-10.68 E4.8622
N31 G1 X10.61 Y-10.10 E5.0149
N32 G1 X11.58 Y-9.46 E5.1695
N33 G1 X12.60 Y-8.69 E5.3395
N34 G1 X13.54 Y-7.87 E5.5055
N35 G1 X14.45 Y-6.99 E5.6739
N36 G1 X15.14 Y-6.23 E5.8105
N37 G1 X15.85 Y-5.35 E5.9609
N38 G1 X16.56 Y-4.38 E6.1208
N39 G1 X17.17 Y-3.43 E6.2710
N40 G1 X17.88 Y-2.07 E6.4751
N41 G1 X18.23 Y-0.09 E6.7426
N42 G1 X17.95 Y1.84 E7.0021
N43 G1 X17.34 Y3.14 E7.1931
N44 G1 X16.58 Y4.34 E7.3821
N45 G1 X15.93 Y5.26 E7.5320
N46 G1 X15.15 Y6.22 E7.6965
N47 G1 X14.35 Y7.09 E7.8538
N48 G1 X13.51 Y7.91 E8.0099
N49 G1 X12.57 Y8.71 E8.1742
N50 G1 X11.57 Y9.46 E8.3405
N51 G1 X10.58 Y10.13 E8.4995
N52 G1 X9.46 Y10.77 E8.6711
N53 G1 X8.38 Y11.31 E8.8318
N54 G1 X7.25 Y11.78 E8.9946
N55 G1 X6.09 Y12.19 E9.1583
N56 G1 X4.86 Y12.54 E9.3284
N57 G1 X3.60 Y12.81 E9.4998
N58 G1 X2.36 Y12.99 E9.6665
N59 G1 X1.21 Y13.10 E9.8202
N60 G1 X-0.04 Y13.13 E9.9866
N61 G1 X-1.13 Y13.09 E10.1317
N62 G1 X-24.86 Y11.64 E13.2946
N63 G1 X-26.25 Y11.38 E13.4828
N64 G1 X-27.74 Y10.69 E13.7012
N65 G1 X-29.13 Y9.56 E13.9395
N66 G1 X-30.16 Y8.08 E14.1794
N67 G1 X-30.73 Y6.51 E14.4017
N68 G1 X-30.89 Y5.15 E14.5838
N69 G1 X-30.89 Y-5.23 E15.9648
;raft
;layer:0.28
N70 G1 E14.6648 F1800
N71 G1 Z0.280 F420
N72 G1 X-25.29 Y-4.87 F4200
N73 G1 E15.9648 F1800
;structure:shell-inner
;extrude_ratio:1.15
N74 G1 X-25.29 Y-4.87 F4200
N75 G1 X-25.24 Y-5.22 E15.9837 F600
N76 G1 X-25.12 Y-5.53 E16.0015
N77 G1 X-24.94 Y-5.76 E16.0172
N78 G1 X-24.75 Y-5.90 E16.0298
N79 G1 X-24.48 Y-6.02 E16.0456
N80 G1 X-24.18 Y-6.07 E16.0619
N81 G1 X-16.01 Y-6.57 E16.5002
N82 G1 X-6.03 Y-7.18 E17.0356
N83 G1 X-0.55 Y-7.51 E17.3296
N84 G1 X0.35 Y-7.52 E17.3778
N85 G1 X1.23 Y-7.48 E17.4250
N86 G1 X2.08 Y-7.38 E17.4708
N87 G1 X2.95 Y-7.23 E17.5181
N88 G1 X3.77 Y-7.03 E17.5633
N89 G1 X4.55 Y-6.80 E17.6068
N90 G1 X5.38 Y-6.50 E17.6541
N91 G1 X6.16 Y-6.16 E17.6997
N92 G1 X6.93 Y-5.77 E17.7459
N93 G1 X7.63 Y-5.36 E17.7893
N94 G1 X8.35 Y-4.88 E17.8357
N95 G1 X9.09 Y-4.32 E17.8854
N96 G1 X9.74 Y-3.76 E17.9313
N97 G1 X10.40 Y-3.11 E17.9809
N98 G1 X10.89 Y-2.58 E18.0196
N99 G1 X11.41 Y-1.93 E18.0641
N100 G1 X11.93 Y-1.22 E18.1113
N101 G1 X12.32 Y-0.61 E18.1500
N102 G1 X12.52 Y-0.24 E18.1725
N103 G1 X12.56 Y-0.01 E18.1851
N104 G1 X12.53 Y0.21 E18.1969
N105 G1 X12.41 Y0.46 E18.2118
N106 G1 X11.93 Y1.21 E18.2595
N107 G1 X11.47 Y1.86 E18.3021
N108 G1 X11.22 Y2.18 E18.3239
N109 G1 X11.04 Y2.14 E18.3337
N110 G1 X11.01 Y1.97 E18.3430
N111 G1 X10.46 Y1.58 E18.3791
N112 G1 X9.68 Y1.46 E18.4213
N113 G1 X10.26 Y0.65 E18.4747
N114 G1 X10.84 Y-0.19 E18.5294
N115 G1 X11.05 Y-0.73 E18.5604
N116 G1 X11.03 Y-1.37 E18.5947
N117 G1 X10.67 Y-1.94 E18.6308
N118 G1 X10.06 Y-2.12 E18.6648
N119 G1 X8.40 Y-2.12 E18.7537
N120 G1 X7.61 Y-2.10 E18.7960
N121 G1 X7.01 Y-1.90 E18.8299
N122 G1 X6.77 Y-1.52 E18.8540
N123 G1 X6.59 Y-1.82 E18.8727
N124 G1 X5.98 Y-2.17 E18.9104
N125 G1 X5.32 Y-1.95 E18.9476
N126 G1 X4.93 Y-1.46 E18.9811
N127 G1 X4.63 Y-0.71 E19.0244
N128 G1 X4.42 Y-0.72 E19.0357
N129 G1 X4.23 Y-1.40 E19.0735
N130 G1 X3.87 Y-1.89 E19.1060
N131 G1 X3.25 Y-2.13 E19.1416
N132 G1 X2.57 Y-2.03 E19.1784
N133 G1 X2.15 Y-1.49 E19.2151
N134 G1 X1.78 Y-1.98 E19.2479
N135 G1 X1.09 Y-2.15 E19.2860
N136 G1 X0.50 Y-1.83 E19.3219
N137 G1 X0.18 Y-1.43 E19.3494
N138 G1 X-0.21 Y-1.90 E19.3821
N139 G1 X-0.79 Y-2.15 E19.4159
N140 G1 X-1.47 Y-1.97 E19.4536
N141 G1 X-1.92 Y-1.45 E19.4904
N142 G1 X-1.90 Y-0.81 E19.5247
N143 G1 X-1.66 Y-0.26 E19.5568
N144 G1 X-1.06 Y0.76 E19.6202
N145 G1 X-1.31 Y1.12 E19.6436
N146 G1 X-1.70 Y1.79 E19.6852
N147 G1 X-2.10 Y1.22 E19.7224
N148 G1 X-2.57 Y0.90 E19.7529
N149 G1 X-3.12 Y0.76 E19.7833
N150 G1 X-3.86 Y0.84 E19.8231
N151 G1 X-3.78 Y0.18 E19.8587
N152 G1 X-3.80 Y-0.56 E19.8984
N153 G1 X-3.90 Y-1.22 E19.9341
N154 G1 X-4.12 Y-1.87 E19.9709
N155 G1 X-4.43 Y-2.41 E20.0042
N156 G1 X-4.84 Y-2.87 E20.0372
N157 G1 X-5.32 Y-3.20 E20.0684
N158 G1 X-5.86 Y-3.40 E20.0992
N159 G1 X-6.54 Y-3.52 E20.1362
N160 G1 X-7.22 Y-3.55 E20.1727
N161 G1 X-8.03 Y-3.56 E20.2160
N162 G1 X-8.62 Y-3.54 E20.2477
N163 G1 X-9.23 Y-3.27 E20.2834
N164 G1 X-9.51 Y-2.70 E20.3174
N165 G1 X-9.47 Y-1.83 E20.3640
N166 G1 X-9.47 Y-0.67 E20.4261
N167 G1 X-9.47 Y0.88 E20.5091
N168 G1 X-9.73 Y0.91 E20.5232
N169 G1 X-9.81 Y0.46 E20.5476
N170 G1 X-10.05 Y-0.22 E20.5862
N171 G1 X-10.32 Y-0.52 E20.6079
N172 G1 X-10.09 Y-0.81 E20.6277
N173 G1 X-9.96 Y-1.38 E20.6590
N174 G1 X-9.94 Y-2.06 E20.6954
N175 G1 X-10.08 Y-2.62 E20.7263
N176 G1 X-10.43 Y-3.11 E20.7586
N177 G1 X-10.93 Y-3.47 E20.7916
N178 G1 X-11.46 Y-3.65 E20.8215
N179 G1 X-12.07 Y-3.73 E20.8545
N180 G1 X-12.74 Y-3.70 E20.8904
N181 G1 X-13.31 Y-3.56 E20.9218
N182 G1 X-13.86 Y-3.28 E20.9549
N183 G1 X-14.19 Y-2.94 E20.9802
N184 G1 X-14.35 Y-2.98 E20.9891
N185 G1 X-14.39 Y-3.18 E21.0000
N186 G1 X-14.96 Y-3.54 E21.0361
N187 G1 X-15.76 Y-3.55 E21.0789
N188 G1 X-17.77 Y-3.55 E21.1866
N189 G1 X-18.62 Y-3.55 E21.2321
N190 G1 X-19.29 Y-3.59 E21.2680
N191 G1 X-19.87 Y-3.34 E21.3018
N192 G1 X-20.24 Y-2.69 E21.3419
N193 G1 X-20.49 Y-3.04 E21.3649
N194 G1 X-20.97 Y-3.39 E21.3967
N195 G1 X-21.51 Y-3.62 E21.4282
N196 G1 X-22.14 Y-3.72 E21.4623
N197 G1 X-22.85 Y-3.70 E21.5004
N198 G1 X-23.46 Y-3.56 E21.5339
N199 G1 X-24.03 Y-3.30 E21.5674
N200 G1 X-24.53 Y-2.91 E21.6014
N201 G1 X-24.94 Y-2.42 E21.6356
N202 G1 X-25.08 Y-2.15 E21.6519
N203 G1 X-25.29 Y-2.21 E21.6636
N204 G1 X-25.29 Y-4.87 E21.8060
;extrude_ratio:1
N205 G1 E20.5060 F1800
N206 G1 X-25.29 Y2.13 F4200
N207 G1 E21.8060 F1800
;extrude_ratio:1.15
N208 G1 X-25.29 Y2.13 F4200
N209 G1 X-25.08 Y2.08 E21.8176 F600
N210 G1 X-24.85 Y2.48 E21.8423
N211 G1 X-24.42 Y2.94 E21.8760
N212 G1 X-23.90 Y3.30 E21.9099
N213 G1 X-23.32 Y3.54 E21.9435
N214 G1 X-22.69 Y3.65 E21.9777
N215 G1 X-22.06 Y3.64 E22.0115
N216 G1 X-21.46 Y3.53 E22.0441
N217 G1 X-20.93 Y3.30 E22.0751
N218 G1 X-20.46 Y2.92 E22.1074
N219 G1 X-20.11 Y2.39 E22.1414
N220 G1 X-20.01 Y1.77 E22.1751
N221 G1 X-20.41 Y1.19 E22.2128
N222 G1 X-21.01 Y0.93 E22.2478
N223 G1 X-21.69 Y1.01 E22.2845
N224 G1 X-22.04 Y1.35 E22.3106
N225 G1 X-22.17 Y1.42 E22.3185
N226 G1 X-22.42 Y1.46 E22.3321
N227 G1 X-22.69 Y1.42 E22.3467
N228 G1 X-22.92 Y1.31 E22.3603
N229 G1 X-23.07 Y1.17 E22.3713
N230 G1 X-23.19 Y0.94 E22.3852
N231 G1 X-23.29 Y0.57 E22.4057
N232 G1 X-23.33 Y0.08 E22.4321
N233 G1 X-23.31 Y-0.48 E22.4621
N234 G1 X-23.24 Y-0.87 E22.4833
N235 G1 X-23.11 Y-1.18 E22.5013
N236 G1 X-22.96 Y-1.35 E22.5134
N237 G1 X-22.79 Y-1.45 E22.5240
N238 G1 X-22.55 Y-1.52 E22.5374
N239 G1 X-22.37 Y-1.51 E22.5470
N240 G1 X-22.16 Y-1.41 E22.5595
N241 G1 X-21.62 Y-1.10 E22.5928
N242 G1 X-20.98 Y-0.97 E22.6278
N243 G1 X-20.37 Y-1.29 E22.6647
N244 G1 X-20.08 Y-1.84 E22.6980
N245 G1 X-19.55 Y-1.39 E22.7352
N246 G1 X-18.93 Y-1.37 E22.7684
N247 G1 X-18.29 Y-1.44 E22.8029
N248 G1 X-18.32 Y-0.78 E22.8383
N249 G1 X-18.31 Y-0.23 E22.8677
N250 G1 X-18.30 Y1.85 E22.9791
N251 G1 X-18.34 Y2.63 E23.0210
N252 G1 X-18.11 Y3.24 E23.0559
N253 G1 X-17.44 Y3.52 E23.0947
N254 G1 X-16.76 Y3.43 E23.1315
N255 G1 X-16.29 Y2.96 E23.1671
N256 G1 X-16.15 Y2.36 E23.2001
N257 G1 X-16.17 Y1.41 E23.2509
N258 G1 X-16.16 Y-1.41 E23.4020
N259 G1 X-15.56 Y-1.39 E23.4341
N260 G1 X-14.92 Y-1.47 E23.4686
N261 G1 X-14.30 Y-1.92 E23.5097
N262 G1 X-14.24 Y-1.73 E23.5203
N263 G1 X-13.74 Y-1.23 E23.5582
N264 G1 X-13.41 Y-1.21 E23.5759
N265 G1 X-13.73 Y-0.44 E23.6206
N266 G1 X-13.64 Y0.25 E23.6578
N267 G1 X-13.13 Y0.65 E23.6925
N268 G1 X-12.44 Y0.80 E23.7303
N269 G1 X-12.23 Y0.90 E23.7428
N270 G1 X-12.07 Y1.07 E23.7553
N271 G1 X-11.98 Y1.33 E23.7700
N272 G1 X-12.07 Y1.51 E23.7808
N273 G1 X-12.27 Y1.50 E23.7915
N274 G1 X-12.74 Y1.18 E23.8220
N275 G1 X-13.36 Y1.07 E23.8557
N276 G1 X-14.01 Y1.27 E23.8921
N277 G1 X-14.38 Y1.83 E23.9280
N278 G1 X-14.37 Y2.49 E23.9634
N279 G1 X-14.09 Y3.03 E23.9960
N280 G1 X-13.59 Y3.40 E24.0293
N281 G1 X-13.00 Y3.59 E24.0625
N282 G1 X-12.35 Y3.66 E24.0975
N283 G1 X-11.69 Y3.62 E24.1329
N284 G1 X-11.14 Y3.45 E24.1637
N285 G1 X-10.64 Y3.16 E24.1947
N286 G1 X-10.22 Y2.74 E24.2265
N287 G1 X-9.91 Y2.22 E24.2589
N288 G1 X-9.71 Y1.62 E24.2927
N289 G1 X-9.48 Y1.66 E24.3053
N290 G1 X-9.49 Y2.36 E24.3427
N291 G1 X-9.37 Y2.96 E24.3755
N292 G1 X-8.91 Y3.47 E24.4123
N293 G1 X-8.28 Y3.51 E24.4461
N294 G1 X-7.73 Y3.47 E24.4756
N295 G1 X-6.94 Y3.48 E24.5179
N296 G1 X-6.28 Y3.42 E24.5534
N297 G1 X-5.67 Y3.26 E24.5872
N298 G1 X-5.14 Y2.99 E24.6190
N299 G1 X-4.79 Y2.69 E24.6437
N300 G1 X-4.74 Y2.92 E24.6563
N301 G1 X-4.45 Y3.41 E24.6868
N302 G1 X-3.99 Y3.79 E24.7188
N303 G1 X-3.42 Y3.96 E24.7506
N304 G1 X-2.85 Y3.93 E24.7812
N305 G1 X-2.33 Y3.70 E24.8116
N306 G1 X-1.88 Y3.26 E24.8453
N307 G1 X-1.19 Y3.69 E24.8889
N308 G1 X-0.53 Y3.62 E24.9244
N309 G1 X-0.10 Y3.20 E24.9566
N310 G1 X0.12 Y2.85 E24.9787
N311 G1 X0.36 Y3.27 E25.0046
N312 G1 X0.83 Y3.66 E25.0373
N313 G1 X1.49 Y3.69 E25.0727
N314 G1 X2.08 Y3.36 E25.1089
N315 G1 X2.31 Y2.75 E25.1438
N316 G1 X2.20 Y2.13 E25.1775
N317 G1 X1.42 Y0.80 E25.2601
N318 G1 X1.43 Y0.61 E25.2703
N319 G1 X1.87 Y-0.14 E25.3169
N320 G1 X2.04 Y-0.46 E25.3363
N321 G1 X2.23 Y-0.43 E25.3466
N322 G1 X2.25 Y-0.34 E25.3515
N323 G1 X2.61 Y0.54 E25.4024
N324 G1 X3.04 Y1.71 E25.4692
N325 G1 X3.43 Y2.66 E25.5242
N326 G1 X3.43 Y2.73 E25.5279
N327 G1 X3.05 Y3.67 E25.5822
N328 G1 X2.93 Y3.89 E25.5956
N329 G1 X2.82 Y3.98 E25.6032
N330 G1 X2.47 Y4.10 E25.6230
N331 G1 X1.91 Y4.34 E25.6557
N332 G1 X1.66 Y4.97 E25.6920
N333 G1 X1.83 Y5.65 E25.7295
N334 G1 X2.28 Y6.12 E25.7643
N335 G1 X2.89 Y6.23 E25.7975
N336 G1 X3.50 Y6.11 E25.8308
N337 G1 X4.06 Y5.85 E25.8639
N338 G1 X4.48 Y5.46 E25.8946
N339 G1 X4.77 Y4.97 E25.9251
N340 G1 X5.09 Y4.23 E25.9682
N341 G1 X5.52 Y3.09 E26.0335
N342 G1 X6.34 Y0.79 E26.1642
N343 G1 X6.62 Y-0.02 E26.2101
N344 G1 X6.74 Y-0.31 E26.2269
N345 G1 X6.91 Y-0.33 E26.2361
N346 G1 X7.05 Y-0.13 E26.2492
N347 G1 X7.64 Y0.05 E26.2822
N348 G1 X7.83 Y0.06 E26.2924
N349 G1 X7.91 Y0.21 E26.3015
N350 G1 X6.93 Y1.56 E26.3908
N351 G1 X6.66 Y2.07 E26.4217
N352 G1 X6.59 Y2.53 E26.4466
N353 G1 X6.71 Y3.14 E26.4799
N354 G1 X7.18 Y3.63 E26.5163
N355 G1 X7.79 Y3.70 E26.5492
N356 G1 X8.37 Y3.67 E26.5803
N357 G1 X9.55 Y3.68 E26.6435
N358 G1 X9.62 Y3.86 E26.6538
N359 G1 X9.06 Y4.35 E26.6936
N360 G1 X8.35 Y4.88 E26.7411
N361 G1 X7.62 Y5.37 E26.7882
N362 G1 X6.80 Y5.84 E26.8388
N363 G1 X6.05 Y6.21 E26.8836
N364 G1 X5.22 Y6.56 E26.9318
N365 G1 X4.39 Y6.85 E26.9789
N366 G1 X3.51 Y7.10 E27.0279
N367 G1 X2.59 Y7.30 E27.0783
N368 G1 X1.71 Y7.43 E27.1259
N369 G1 X0.90 Y7.50 E27.1695
N370 G1 X-0.01 Y7.53 E27.2182
N371 G1 X-0.87 Y7.50 E27.2643
N372 G1 X-24.17 Y6.07 E28.5143
N373 G1 X-24.53 Y6.01 E28.5339
N374 G1 X-24.76 Y5.90 E28.5475
N375 G1 X-24.98 Y5.72 E28.5627
N376 G1 X-25.15 Y5.48 E28.5785
N377 G1 X-25.25 Y5.21 E28.5939
N378 G1 X-25.29 Y4.83 E28.6144
N379 G1 X-25.29 Y2.13 E28.7590
;extrude_ratio:1
N380 G1 E27.4590 F1800
N381 G1 X-25.14 Y-0.09 F4200
N382 G1 E28.7590 F1800
;structure:shell-outer
;extrude_ratio:1.15
N383 G1 X-25.14 Y-0.09 F4200
N384 G1 X-25.10 Y0.61 E28.7965 F600
N385 G1 X-25.00 Y1.21 E28.8291
N386 G1 X-24.81 Y1.76 E28.8602
N387 G1 X-24.52 Y2.24 E28.8903
N388 G1 X-24.16 Y2.64 E28.9191
N389 G1 X-23.71 Y2.95 E28.9483
N390 G1 X-23.21 Y3.15 E28.9772
N391 G1 X-22.66 Y3.25 E29.0071
N392 G1 X-22.10 Y3.24 E29.0371
N393 G1 X-21.58 Y3.15 E29.0654
N394 G1 X-21.14 Y2.96 E29.0910
N395 G1 X-20.76 Y2.65 E29.1173
N396 G1 X-20.50 Y2.24 E29.1433
N397 G1 X-20.43 Y1.86 E29.1640
N398 G1 X-20.67 Y1.51 E29.1867
N399 G1 X-21.07 Y1.34 E29.2100
N400 G1 X-21.51 Y1.39 E29.2337
N401 G1 X-21.80 Y1.68 E29.2557
N402 G1 X-22.05 Y1.81 E29.2707
N403 G1 X-22.42 Y1.86 E29.2907
N404 G1 X-22.81 Y1.81 E29.3118
N405 G1 X-23.15 Y1.64 E29.3321
N406 G1 X-23.39 Y1.42 E29.3496
N407 G1 X-23.57 Y1.09 E29.3697
N408 G1 X-23.69 Y0.64 E29.3947
N409 G1 X-23.74 Y0.08 E29.4248
N410 G1 X-23.71 Y-0.52 E29.4569
N411 G1 X-23.62 Y-0.99 E29.4826
N412 G1 X-23.45 Y-1.39 E29.5058
N413 G1 X-23.23 Y-1.65 E29.5241
N414 G1 X-22.95 Y-1.83 E29.5419
N415 G1 X-22.60 Y-1.92 E29.5612
N416 G1 X-22.27 Y-1.90 E29.5789
N417 G1 X-21.98 Y-1.77 E29.5960
N418 G1 X-21.48 Y-1.48 E29.6269
N419 G1 X-21.04 Y-1.39 E29.6510
N420 G1 X-20.66 Y-1.59 E29.6740
N421 G1 X-20.46 Y-1.97 E29.6970
N422 G1 X-20.50 Y-2.38 E29.7190
N423 G1 X-20.78 Y-2.75 E29.7439
N424 G1 X-21.17 Y-3.04 E29.7699
N425 G1 X-21.62 Y-3.23 E29.7960
N426 G1 X-22.17 Y-3.32 E29.8259
N427 G1 X-22.79 Y-3.30 E29.8591
N428 G1 X-23.33 Y-3.18 E29.8887
N429 G1 X-23.82 Y-2.95 E29.9177
N430 G1 X-24.25 Y-2.62 E29.9467
N431 G1 X-24.60 Y-2.20 E29.9760
N432 G1 X-24.87 Y-1.68 E30.0074
N433 G1 X-25.03 Y-1.12 E30.0386
N434 G1 X-25.12 Y-0.46 E30.0742
N435 G1 X-25.14 Y-0.09 E30.0941
;extrude_ratio:1
N436 G1 E28.7941 F1800
N437 G1 X-25.69 Y-4.89 F4200
N438 G1 E30.0941 F1800
;extrude_ratio:1.15
N439 G1 X-25.69 Y-4.89 F4200
N440 G1 X-25.63 Y-5.33 E30.1179 F600
N441 G1 X-25.47 Y-5.73 E30.1409
N442 G1 X-25.22 Y-6.05 E30.1627
N443 G1 X-24.96 Y-6.25 E30.1802
N444 G1 X-24.60 Y-6.41 E30.2013
N445 G1 X-24.22 Y-6.47 E30.2219
N446 G1 X-0.56 Y-7.91 E31.4912
N447 G1 X0.36 Y-7.92 E31.5405
N448 G1 X1.27 Y-7.88 E31.5893
N449 G1 X2.13 Y-7.78 E31.6357
N450 G1 X3.03 Y-7.62 E31.6846
N451 G1 X3.88 Y-7.42 E31.7314
N452 G1 X4.68 Y-7.18 E31.7761
N453 G1 X5.51 Y-6.88 E31.8233
N454 G1 X6.33 Y-6.52 E31.8713
N455 G1 X7.12 Y-6.12 E31.9187
N456 G1 X7.85 Y-5.69 E31.9641
N457 G1 X8.58 Y-5.21 E32.0109
N458 G1 X9.33 Y-4.64 E32.0613
N459 G1 X10.02 Y-4.05 E32.1099
N460 G1 X10.70 Y-3.38 E32.1610
N461 G1 X11.19 Y-2.84 E32.2001
N462 G1 X11.73 Y-2.18 E32.2458
N463 G1 X12.26 Y-1.45 E32.2941
N464 G1 X12.66 Y-0.82 E32.3340
N465 G1 X12.90 Y-0.36 E32.3618
N466 G1 X12.96 Y-0.02 E32.3803
N467 G1 X12.91 Y0.33 E32.3992
N468 G1 X12.76 Y0.65 E32.4182
N469 G1 X12.27 Y1.44 E32.4679
N470 G1 X11.79 Y2.10 E32.5116
N471 G1 X11.20 Y2.83 E32.5619
N472 G1 X10.62 Y3.46 E32.6078
N473 G1 X10.00 Y4.06 E32.6540
N474 G1 X9.31 Y4.66 E32.7029
N475 G1 X8.57 Y5.22 E32.7526
N476 G1 X7.83 Y5.71 E32.8001
N477 G1 X7.00 Y6.19 E32.8515
N478 G1 X6.21 Y6.58 E32.8987
N479 G1 X5.38 Y6.93 E32.9469
N480 G1 X4.51 Y7.24 E32.9963
N481 G1 X3.62 Y7.49 E33.0459
N482 G1 X2.66 Y7.69 E33.0984
N483 G1 X1.75 Y7.83 E33.1477
N484 G1 X0.92 Y7.90 E33.1923
N485 G1 X-0.01 Y7.93 E33.2421
N486 G1 X-0.88 Y7.90 E33.2887
N487 G1 X-24.22 Y6.47 E34.5409
N488 G1 X-24.65 Y6.39 E34.5643
N489 G1 X-24.97 Y6.24 E34.5832
N490 G1 X-25.28 Y5.99 E34.6045
N491 G1 X-25.50 Y5.66 E34.6258
N492 G1 X-25.64 Y5.30 E34.6465
N493 G1 X-25.69 Y4.85 E34.6707
N494 G1 X-25.69 Y-4.89 E35.1923
;extrude_ratio:1
N495 G1 E33.8923 F1800
N496 G1 X-21.57 Y-3.41 F4200
N497 G1 X-19.81 Y-2.46
N498 G1 E35.1923 F1800
;extrude_ratio:1.15
N499 G1 X-19.81 Y-2.46 F4200
N500 G1 X-19.70 Y-2.04 E35.2155 F600
N501 G1 X-19.40 Y-1.78 E35.2368
N502 G1 X-18.94 Y-1.77 E35.2614
N503 G1 X-18.38 Y-1.83 E35.2916
N504 G1 X-18.10 Y-1.78 E35.3068
N505 G1 X-17.95 Y-1.67 E35.3168
N506 G1 X-17.89 Y-1.47 E35.3280
N507 G1 X-17.92 Y-0.78 E35.3649
