; HEADER_BLOCK_START
; generated by OrcaSlicer 2.1.0-dev on 2024-05-12 at 03:37:41
; total layer number: 266
; filament_density: 1.24
; filament_diameter: 1.75
; max_z_height: 48.00
; HEADER_BLOCK_END

; THUMBNAIL_BLOCK_START

;
; THUMBNAIL_BLOCK_END

; external perimeters extrusion width = 0.40mm
; perimeters extrusion width = 0.40mm
; infill extrusion width = 0.40mm
; solid infill extrusion width = 0.40mm
; top infill extrusion width = 0.40mm
; first layer extrusion width = 0.40mm

; EXECUTABLE_BLOCK_START
M73 P0 R68
M201 X2000 Y2000 Z500 E200
M203 X200 Y200 Z20 E200
M204 P2000 R2000 T2000
M205 X9.00 Y9.00 Z3.00 E2.50 ; sets the jerk limits, mm/sec
M106 S0
M106 P2 S0
;TYPE:Custom
M118 X10 Y10 Z10
M140 S50; set initial bed temp
M104 S210 T0; set initial extruder temp
M107; disable cooling fan
G90; set to absolute positioning
G28; home axes
M132 X Y A B; recall home offsets from EPROM
G1 Z50.0 F420; adjust Z
G161 X Y F3300
M7; wait for bed to stabilize
M6 T0; wait for extruder to stabilize
M651 S255; start case fan
G1 Z0.3 F3600; move down to purge
G92 E0; zero extruders
G1 X120 Y-125 E20 F2000; extrude a line of filament across the front edge of the bed
G1 X130 Y-125 F180; wait for ooze
M73 P0 R67
G1 X140 Y-125 F5000; fast wipe
G1 Z1 F100; lift
G92 E0; zero extruders again
G1 E-1.0000 F1800
G90
G21
M83 ; use relative distances for extrusion
; filament start gcode
;right_extruder_material: PLA
M900 K0; Override pressure advance value
M106 S0
M106 P2 S0
;LAYER_CHANGE
;Z:0.27
;HEIGHT:0.27
;BEFORE_LAYER_CHANGE
;0.27
G92 E0; prevent loss of floasting point accuracy
G1 E-1.3 F1800
;AFTER_LAYER_CHANGE
;0.27
;_SET_FAN_SPEED_CHANGING_LAYER
M204 S500
; printing object 3DBenchy.stl id:0 copy 0
G1 X7.891 Y1.208 F30000
G1 Z.27
G1 E1.3 F1800
;TYPE:Inner wall
;WIDTH:0.350882
G1 F600
G1 X7.919 Y1.334 E.00463
G1 X7.844 Y1.44 E.00467
G1 X7.727 Y1.366 E.00498
;WIDTH:0.394188
G1 X7.648 Y1.299 E.00429
;WIDTH:0.437495
G1 X7.568 Y1.231 E.00484
;WIDTH:0.480801
G1 X7.489 Y1.163 E.00539
;WIDTH:0.524108
G1 X7.41 Y1.095 E.00594
;WIDTH:0.567414
G1 X7.331 Y1.028 E.0065
;WIDTH:0.610721
G1 X7.252 Y.96 E.00705
G1 X7.329 Y.958 E.00526
;WIDTH:0.568381
G1 X7.407 Y.956 E.00485
;WIDTH:0.526042
G1 X7.485 Y.954 E.00445
;WIDTH:0.483703
G1 X7.562 Y.952 E.00405
;WIDTH:0.441364
G1 X7.644 Y.981 E.00407
;WIDTH:0.396756
G1 X7.726 Y1.01 E.00359
;WIDTH:0.352149
G1 X7.865 Y1.177 E.00783
G1 E-1.3 F1800
;WIPE_START
G1 F600
G1 X7.919 Y1.334
G1 X7.844 Y1.44
G1 X7.727 Y1.366
G1 X7.648 Y1.299
G1 X7.568 Y1.231
G1 X7.489 Y1.163
G1 X7.41 Y1.095
G1 X7.331 Y1.028
G1 X7.252 Y.96
G1 X7.329 Y.958
G1 X7.407 Y.956
G1 X7.485 Y.954
G1 X7.562 Y.952
G1 X7.644 Y.981
G1 X7.726 Y1.01
G1 X7.865 Y1.177
;WIPE_END
G1 X10.408 Y-1.171 F30000
G1 E1.3 F1800
;WIDTH:0.42587
G1 F600
G1 X10.39 Y-.993 E.00806
;WIDTH:0.473703
G1 X10.367 Y-.758 E.01198
;WIDTH:0.521536
G1 X10.343 Y-.524 E.01336
G1 X10.345 Y.42 E.05355
G1 X10.115 Y-.133 E.03395
G2 X9.796 Y-.5 I-1.002 J.549 E.02781
G2 X9.971 Y-.771 I-.382 J-.439 E.01855
;WIDTH:0.485093
G1 X10.015 Y-.878 E.00606
;WIDTH:0.448649
G1 X10.057 Y-1.072 E.00946
;WIDTH:0.413343
G1 X10.098 Y-1.265 E.00861
;WIDTH:0.421425
G1 X10.13 Y-1.331 E.00323
;WIDTH:0.464814
G1 X10.162 Y-1.396 E.00362
;WIDTH:0.508202
G1 X10.194 Y-1.461 E.004
;WIDTH:0.551591
G1 X10.226 Y-1.527 E.00439
;WIDTH:0.59498
G1 X10.258 Y-1.592 E.00477
;WIDTH:0.638368
G1 X10.29 Y-1.657 E.00516
G1 X10.31 Y-1.585 E.00529
;WIDTH:0.59498
G1 X10.331 Y-1.514 E.0049
;WIDTH:0.551591
G1 X10.352 Y-1.442 E.0045
;WIDTH:0.508202
G1 X10.372 Y-1.371 E.00411
;WIDTH:0.464814
G1 X10.393 Y-1.299 E.00371
;WIDTH:0.421425
G1 X10.413 Y-1.227 E.00332
;WIDTH:0.42587
G1 X10.412 Y-1.211 E.00075
G1 E-1.3 F1800
;WIPE_START
G1 F600
G1 X10.39 Y-.993
G1 X10.367 Y-.758
G1 X10.343 Y-.524
G1 X10.345 Y.42
G1 X10.205 Y.082
;WIPE_END
G1 X15.468 Y1.989 F30000
G1 E1.3 F1800
;TYPE:Outer wall
;WIDTH:0.649248
G1 F600
G1 X15.635 Y1.653 E.02715
G1 E-1.3 F1800
;WIPE_START
G1 F600
G1 X15.468 Y1.989
;WIPE_END
G1 X-5.171 Y-2.238 F30000
G1 E1.3 F1800
;TYPE:Inner wall
;WIDTH:0.399999
G1 F600
G1 X-5.166 Y-4.383 E.08978
G1 X-5.136 Y-5.081 E.02923
G1 X-5.034 Y-5.408 E.01432
G1 X-4.799 Y-5.721 E.01638
G3 X-4.261 Y-5.942 I.651 J.819 E.02468
G1 X19.196 Y-7.377 E.98357
G3 X23.284 Y-7.029 I.8 J14.795 E.17228
G1 X24.545 Y-6.673 E.05483
G3 X26.764 Y-5.717 I-5 J14.664 E.10124
G1 X27.944 Y-5.01 E.05758
G3 X30.607 Y-2.707 I-8.221 J12.194 E.14769
;WIDTH:0.415134
G1 X31.001 Y-2.235 E.02689
;WIDTH:0.421071
G1 X31.715 Y-1.311 E.05185
;WIDTH:0.399999
G3 X32.398 Y-.2 I-8.009 J5.691 E.05463
G1 X32.407 Y.164 E.01526
G3 X31.124 Y2.141 I-12.576 J-6.759 E.09872
G1 X31.082 Y2.044 E.00442
G1 X30.822 Y1.71 E.0177
G1 X30.41 Y1.467 E.02003
G1 X29.872 Y1.381 E.0228
G1 X30.846 Y.017 E.07014
G1 X31.12 Y-.567 E.02701
G1 X31.172 Y-1.09 E.02199
;WIDTH:0.421071
G1 X31.079 Y-1.549 E.02081
G1 X30.867 Y-1.874 E.01725
;WIDTH:0.404936
G1 X30.542 Y-2.11 E.01705
G1 X30.289 Y-2.191 E.01127
;WIDTH:0.399999
G2 X28.55 Y-2.237 I-1.19 J11.959 E.07288
G2 X27.413 Y-2.17 I-.288 J4.799 E.04777
G1 X26.986 Y-1.966 E.01981
G1 X26.77 Y-1.719 E.0137
G2 X26.337 Y-2.109 I-1.746 J1.508 E.02444
G1 X25.871 Y-2.235 E.0202
G1 X25.511 Y-2.157 E.01542
G1 X25.312 Y-2.053 E.00942
G1 X24.976 Y-1.733 E.01942
G1 X24.684 Y-1.213 E.02495
G1 X24.538 Y-.721 E.02146
G1 X24.411 Y-1.218 E.02146
G1 X24.187 Y-1.705 E.02242
G1 X23.859 Y-2.014 E.01888
G1 X23.366 Y-2.206 E.02213
G1 X23.079 Y-2.238 E.0121
G1 X22.616 Y-2.137 E.01982
G1 X22.301 Y-1.911 E.01624
G1 X22.163 Y-1.727 E.00964
G1 X21.986 Y-1.921 E.01101
G1 X21.559 Y-2.183 E.02097
G1 X21.098 Y-2.226 E.01938
G1 X20.672 Y-2.064 E.01906
G1 X20.505 Y-1.94 E.0087
G1 X20.174 Y-1.563 E.02102
G1 X19.925 Y-1.882 E.01696
G1 X19.608 Y-2.119 E.01658
G1 X19.218 Y-2.231 E.01695
G1 X18.757 Y-2.173 E.01945
G1 X18.368 Y-1.974 E.01831
G1 X18.087 Y-1.64 E.01823
G2 X17.964 Y-.948 I1.113 J.556 E.02985
G1 X18.114 Y-.44 E.02215
G1 X18.797 Y.742 E.05714
G2 X18.284 Y1.626 I5.169 J3.59 E.04283
G1 X18.092 Y1.291 E.01616
G1 X17.959 Y1.138 E.00847
G1 X17.64 Y.893 E.01685
G1 X17.17 Y.7 E.02127
G1 X16.737 Y.661 E.01817
G1 X16.245 Y.777 E.02117
G2 X16.281 Y-.774 I-4.698 J-.884 E.06525
G1 X16.198 Y-1.298 E.0222
G1 X15.933 Y-2.027 E.03246
G1 X15.526 Y-2.654 E.03127
G1 X15.084 Y-3.08 E.02569
G1 X14.62 Y-3.359 E.02265
G1 X14.131 Y-3.528 E.02164
G2 X12.969 Y-3.671 I-1.24 J5.29 E.04911
G1 X11.803 Y-3.686 E.04882
G1 X11.301 Y-3.632 E.0211
G1 X11.109 Y-3.571 E.00846
G1 X10.698 Y-3.325 E.02006
G2 X10.418 Y-2.831 I.851 J.807 E.02399
;WIDTH:0.448949
G1 X10.388 Y-2.722 E.00539
;WIDTH:0.497898
G1 X10.358 Y-2.614 E.00606
;WIDTH:0.546848
G1 X10.328 Y-2.505 E.00674
;WIDTH:0.595797
G1 X10.297 Y-2.397 E.00741
;WIDTH:0.644746
G1 X10.267 Y-2.288 E.00809
G1 X10.201 Y-2.39 E.00873
;WIDTH:0.595797
G1 X10.135 Y-2.493 E.008
;WIDTH:0.546848
G1 X10.069 Y-2.595 E.00727
;WIDTH:0.497898
G1 X10.004 Y-2.697 E.00654
;WIDTH:0.448949
G1 X9.938 Y-2.799 E.00582
;WIDTH:0.399999
G1 X9.587 Y-3.247 E.02383
G1 X9.056 Y-3.601 E.02669
G1 X8.437 Y-3.791 E.02711
G1 X7.654 Y-3.848 E.03286
G1 X6.931 Y-3.753 E.0305
G1 X6.41 Y-3.569 E.02314
G1 X5.962 Y-3.276 E.0224
G1 X5.767 Y-3.062 E.01212
G1 X5.57 Y-3.337 E.01418
G1 X5.18 Y-3.592 E.01948
G1 X4.956 Y-3.651 E.00972
G1 X4.347 Y-3.671 E.02551
G1 X1.441 Y-3.669 E.12161
G1 X.805 Y-3.706 E.02665
G1 X.286 Y-3.563 E.02256
G1 X-.063 Y-3.256 E.01945
G1 X-.237 Y-2.91 E.01621
G1 X-.515 Y-3.208 E.01705
G1 X-.978 Y-3.524 E.02346
G1 X-1.593 Y-3.758 E.02753
G1 X-2.202 Y-3.841 E.02572
G1 X-3.111 Y-3.777 E.03816
G1 X-3.76 Y-3.569 E.02852
G1 X-4.382 Y-3.193 E.03041
G1 X-4.894 Y-2.678 E.0304
G1 X-5.15 Y-2.272 E.02006
G1 E-1.3 F1800
;WIPE_START
G1 F600
G1 X-5.165 Y-4.272
;WIPE_END
G1 X-2.533 Y-1.38 F30000
G1 E1.3 F1800
G1 F600
G1 X-2.355 Y-1.377 E.00745
G2 X-1.534 Y-.949 I2.724 J-4.222 E.03881
G1 X-.995 Y-.885 E.02275
G1 X-.541 Y-1.042 E.0201
G1 X-.19 Y-1.372 E.02013
G1 X-.034 Y-1.654 E.01352
G1 X.21 Y-1.416 E.01426
G1 X.568 Y-1.272 E.01618
G2 X1.591 Y-1.299 I.417 J-3.64 E.04294
G1 X1.561 Y-.843 E.0191
G1 X1.576 Y2.019 E.11979
G1 X1.542 Y2.546 E.02211
G1 X1.639 Y2.978 E.01851
G1 X1.747 Y3.172 E.00932
G1 X2.061 Y3.451 E.01759
G1 X2.332 Y3.568 E.01235
G1 X2.831 Y3.623 E.021
G1 X3.274 Y3.509 E.01915
G1 X3.469 Y3.387 E.00963
G1 X3.714 Y3.14 E.01455
G1 X3.922 Y2.661 E.02183
G2 X3.948 Y1.517 I-4.622 J-.675 E.04802
G1 X3.957 Y-1.279 E.11703
G2 X4.894 Y-1.316 I.299 J-4.379 E.03935
G1 X5.387 Y-1.511 E.02218
G1 X5.632 Y-1.763 E.01474
G1 X5.875 Y-1.42 E.01759
G1 X6.22 Y-1.168 E.01789
G1 X6.435 Y-1.088 E.00961
G1 X6.32 Y-.892 E.00952
G1 X6.172 Y-.432 E.02024
G1 X6.208 Y.085 E.02169
G1 X6.455 Y.507 E.02046
;WIDTH:0.448985
G1 X6.577 Y.603 E.0074
;WIDTH:0.49797
G1 X6.698 Y.699 E.00833
;WIDTH:0.546955
G1 X6.819 Y.795 E.00926
;WIDTH:0.595941
G1 X6.94 Y.891 E.01019
G1 X6.777 Y.927 E.01097
;WIDTH:0.546955
G1 X6.615 Y.962 E.00997
;WIDTH:0.49797
G1 X6.452 Y.997 E.00897
;WIDTH:0.448985
G1 X6.289 Y1.033 E.00797
;WIDTH:0.399999
G1 X5.901 Y1.246 E.01852
G1 X5.739 Y1.412 E.00973
G1 X5.542 Y1.761 E.01675
G1 X5.486 Y2.178 E.01761
G1 X5.579 Y2.669 E.02095
G1 X5.818 Y3.08 E.01987
G1 X5.948 Y3.214 E.00781
G1 X6.436 Y3.534 E.02443
G1 X7.019 Y3.715 E.02555
G1 X7.599 Y3.776 E.0244
G1 X8.237 Y3.742 E.02673
G1 X8.902 Y3.558 E.0289
G1 X9.487 Y3.205 E.02858
G1 X9.952 Y2.703 E.02863
G1 X10.227 Y2.202 E.02393
;WIDTH:0.406645
G1 X10.405 Y1.67 E.02395
G1 X10.392 Y2.248 E.02465
;WIDTH:0.399999
G1 X10.454 Y2.761 E.02165
G1 X10.703 Y3.259 E.02328
G1 X11.02 Y3.506 E.01682
G1 X11.269 Y3.598 E.01113
G1 X11.715 Y3.632 E.01871
G3 X12.875 Y3.604 I.765 J7.681 E.04861
G2 X14.09 Y3.457 I-.003 J-5.123 E.05137
G1 X14.757 Y3.179 E.03023
G1 X15.179 Y2.832 E.02286
G1 X15.254 Y3.106 E.01188
G1 X15.524 Y3.532 E.0211
G1 X16.011 Y3.903 E.02563
G1 X16.55 Y4.07 E.02363
G1 X17.065 Y4.058 E.02154
G1 X17.578 Y3.876 E.0228
G1 X17.972 Y3.557 E.0212
G1 X18.148 Y3.312 E.01261
G1 X18.219 Y3.413 E.00518
G1 X18.489 Y3.622 E.01428
G1 X18.849 Y3.771 E.0163
G1 X19.248 Y3.771 E.01667
G1 X19.437 Y3.717 E.00822
G1 X19.817 Y3.453 E.01941
G1 X20.124 Y3.028 E.02192
G1 X20.169 Y3.118 E.00423
G1 X20.47 Y3.534 E.02146
G1 X20.915 Y3.779 E.02126
G1 X21.34 Y3.808 E.01782
;WIDTH:0.437928
G1 X21.532 Y3.781 E.00903
;WIDTH:0.475857
G1 X21.724 Y3.755 E.00993
;WIDTH:0.495692
G2 X22.059 Y3.505 I-.121 J-.512 E.02302
;WIDTH:0.447846
G1 X22.197 Y3.348 E.00997
;WIDTH:0.399999
G1 X22.362 Y2.987 E.01662
G1 X22.403 Y2.694 E.01238
G1 X22.363 Y2.277 E.01751
G1 X22.169 Y1.81 E.0212
G1 X21.523 Y.722 E.05295
G3 X22.119 Y-.334 I9.306 J4.556 E.05078
G1 X22.451 Y.461 E.03608
G1 X23.092 Y2.182 E.07684
G1 X23.297 Y2.642 E.02109
G1 X23.298 Y2.723 E.00339
G1 X22.856 Y3.77 E.04756
G1 X22.671 Y3.921 E.00998
;WIDTH:0.447846
G1 X22.412 Y3.976 E.01266
;WIDTH:0.495692
G1 X22.152 Y4.03 E.01421
G1 X21.928 Y4.181 E.01446
;WIDTH:0.475857
G1 X21.79 Y4.396 E.01306
;WIDTH:0.437928
G1 X21.652 Y4.611 E.01187
;WIDTH:0.399999
G1 X21.583 Y4.876 E.01148
G1 X21.623 Y5.412 E.02248
G1 X21.836 Y5.847 E.02029
G1 X22.193 Y6.176 E.0203
G2 X22.715 Y6.332 I.626 J-1.146 E.02299
G1 X23.268 Y6.29 E.02321
G1 X23.783 Y6.121 E.0227
G1 X24.295 Y5.807 E.02514
G1 X24.649 Y5.416 E.02207
G2 X25.713 Y2.906 I-15.042 J-7.853 E.11423
;WIDTH:0.440008
G1 X25.802 Y2.718 E.00971
;WIDTH:0.480016
G1 X25.89 Y2.53 E.01073
;WIDTH:0.520024
G1 X25.979 Y2.342 E.01175
G1 X26.186 Y1.71 E.03758
;WIDTH:0.524478
G1 X26.374 Y1.243 E.02878
G1 X26.403 Y1.101 E.00824
;WIDTH:0.482985
G1 X26.431 Y.96 E.00751
;WIDTH:0.441492
G1 X26.46 Y.818 E.00678
;WIDTH:0.399999
G3 X26.83 Y-.231 I11.177 J3.351 E.04658
G1 X27.067 Y-.054 E.01238
G1 X27.43 Y.1 E.01649
G1 X27.871 Y.131 E.01851
G2 X27.086 Y1.14 I7.032 J6.275 E.05356
;WIDTH:0.441492
G1 X26.99 Y1.238 E.00643
;WIDTH:0.482985
G1 X26.894 Y1.336 E.00713
;WIDTH:0.524478
G1 X26.798 Y1.434 E.00783
G1 X26.538 Y1.967 E.03384
;WIDTH:0.519615
G1 X26.424 Y2.46 E.02861
G1 X26.465 Y2.63 E.00985
;WIDTH:0.479743
G1 X26.505 Y2.8 E.009
;WIDTH:0.439871
G1 X26.546 Y2.969 E.00815
;WIDTH:0.399999
G1 X26.749 Y3.359 E.01839
G2 X27.372 Y3.782 I.932 J-.702 E.0321
G1 X27.852 Y3.82 E.02013
G2 X29.573 Y3.773 I.084 J-28.132 E.0721
G3 X26.06 Y6.072 I-10.711 J-12.538 E.17621
M73 P1 R67
G3 X19.485 Y7.392 I-6.052 J-13.111 E.28323
G1 X-3.611 Y5.985 E.96844
G1 X-4.371 Y5.911 E.03195
G1 X-4.736 Y5.768 E.01644
G3 X-5.076 Y5.338 I.546 J-.782 E.02324
G1 X-5.168 Y4.868 E.02006
G1 X-5.17 Y2.185 E.11229
G1 X-4.766 Y2.761 E.02945
G1 X-4.216 Y3.244 E.03064
G1 X-3.591 Y3.57 E.0295
G1 X-3.11 Y3.708 E.02095
G1 X-2.493 Y3.774 E.02595
G1 X-1.87 Y3.74 E.02611
G1 X-1.303 Y3.6 E.02445
G1 X-.709 Y3.288 E.02808
G1 X-.297 Y2.903 E.02362
G1 X-.015 Y2.419 E.02343
G1 X.089 Y2.002 E.01799
G1 X.027 Y1.688 E.01339
G1 X-.135 Y1.344 E.01593
G1 X-.424 Y1.059 E.01699
G1 X-.829 Y.871 E.01867
G1 X-1.32 Y.824 E.02067
G1 X-1.82 Y.979 E.02188
G1 X-2.189 Y1.297 E.02041
G1 X-2.465 Y1.328 E.01158
G1 X-2.822 Y1.229 E.01553
G1 X-2.986 Y1.061 E.00985
G1 X-3.135 Y.713 E.01582
G3 X-3.099 Y-.885 I3.181 J-.726 E.06761
G1 X-2.917 Y-1.228 E.01625
G1 X-2.61 Y-1.381 E.01434
G1 X-2.573 Y-1.381 E.00155
G1 X-2.522 Y-1.779 F30000
;TYPE:Outer wall
G1 F600
G1 X-2.828 Y-1.715 E.01306
G1 X-3.161 Y-1.515 E.01626
G1 X-3.35 Y-1.242 E.01387
G1 X-3.513 Y-.774 E.02077
G2 X-3.494 Y.81 I4.169 J.74 E.0667
G2 X-3.229 Y1.375 I1.852 J-.522 E.02624
G1 X-3.009 Y1.556 E.01192
G1 X-2.631 Y1.695 E.01684
G1 X-2.178 Y1.678 E.01899
G1 X-2.007 Y1.633 E.0074
G1 X-1.667 Y1.323 E.01924
G1 X-1.294 Y1.195 E.01652
G1 X-.931 Y1.229 E.01524
G1 X-.604 Y1.39 E.01528
G1 X-.371 Y1.656 E.01479
G1 X-.284 Y1.997 E.01472
G1 X-.337 Y2.236 E.01028
G1 X-.598 Y2.682 E.02158
G1 X-.995 Y3.038 E.02234
G1 X-1.465 Y3.267 E.02189
G1 X-1.965 Y3.38 E.02144
G3 X-3.51 Y3.204 I-.415 J-3.234 E.06571
G1 X-4.039 Y2.918 E.0252
G1 X-4.516 Y2.488 E.02689
G1 X-4.88 Y1.951 E.02713
;WIDTH:0.407817
G1 X-5.097 Y1.389 E.02579
G1 X-5.214 Y.534 E.03694
;WIDTH:0.373012
G3 X-5.208 Y-.714 I14.384 J-.557 E.04812
;WIDTH:0.411955
G1 X-5.13 Y-1.373 E.02876
G1 X-4.93 Y-1.919 E.0252
;WIDTH:0.399999
G1 X-4.58 Y-2.48 E.02764
G1 X-4.124 Y-2.926 E.02671
G1 X-3.575 Y-3.248 E.02663
G1 X-3.005 Y-3.422 E.02493
G1 X-2.182 Y-3.471 E.03452
G1 X-1.649 Y-3.392 E.02253
G1 X-1.118 Y-3.18 E.02395
G1 X-.709 Y-2.886 E.02108
G1 X-.429 Y-2.534 E.01881
;WIDTH:0.398587
G1 X-.324 Y-2.217 E.01392
;WIDTH:0.399999
G1 X-.351 Y-1.855 E.01521
G1 X-.46 Y-1.626 E.01058
G1 X-.725 Y-1.366 E.01556
G1 X-1.069 Y-1.254 E.0151
G1 X-1.506 Y-1.337 E.01862
G1 X-2.228 Y-1.733 E.03448
G1 X-2.483 Y-1.773 E.01078
G1 E-1.3 F1800
;WIPE_START
G1 F600
G1 X-2.828 Y-1.715
G1 X-3.161 Y-1.515
G1 X-3.35 Y-1.242
G1 X-3.513 Y-.774
G1 X-3.568 Y-.343
;WIPE_END
G1 X1.95 Y-1.537 F30000
G1 E1.3 F1800
G1 F600
G1 X1.821 Y-1.64 E.0069
G1 X1.61 Y-1.673 E.00895
G3 X.691 Y-1.622 I-.709 J-4.458 E.03855
G1 X.394 Y-1.743 E.01346
G1 X.164 Y-2.006 E.0146
;WIDTH:0.398892
G1 X.061 Y-2.38 E.01617
;WIDTH:0.399999
G1 X.079 Y-2.703 E.01356
G1 X.212 Y-3.008 E.01391
G1 X.496 Y-3.25 E.01561
G1 X.846 Y-3.336 E.01509
G2 X2.23 Y-3.305 I.885 J-8.648 E.05802
G1 X4.346 Y-3.3 E.08854
G1 X4.944 Y-3.281 E.02504
G1 X5.281 Y-3.105 E.01591
G1 X5.458 Y-2.807 E.0145
;WIDTH:0.398497
G1 X5.497 Y-2.462 E.01446
;WIDTH:0.399999
G1 X5.389 Y-2.052 E.01777
G1 X5.177 Y-1.819 E.01316
G1 X4.823 Y-1.68 E.01591
G3 X3.6 Y-1.66 I-.764 J-9.117 E.05125
G1 X3.577 Y1.523 E.13321
G3 X3.559 Y2.579 I-4.247 J.459 E.04431
G1 X3.418 Y2.914 E.01521
G1 X3.153 Y3.158 E.01508
G1 X2.847 Y3.253 E.01341
G1 X2.479 Y3.227 E.01544
G1 X2.156 Y3.072 E.015
G1 X1.994 Y2.871 E.01082
G1 X1.915 Y2.537 E.01434
G2 X1.938 Y1.439 I-7.12 J-.705 E.04604
G1 X1.932 Y-.849 E.09575
G1 X1.966 Y-1.355 E.02122
G1 X1.954 Y-1.497 E.00598
G1 E-1.3 F1800
;WIPE_START
G1 F600
G1 X1.821 Y-1.64
G1 X1.61 Y-1.673
G1 X1.09 Y-1.621
G1 X.691 Y-1.622
G1 X.394 Y-1.743
G1 X.164 Y-2.006
G1 X.164 Y-2.007
;WIPE_END
G1 X7.935 Y-1.574 F30000
G1 E1.3 F1800
;WIDTH:0.481259
G1 F600
G1 X7.889 Y-1.738 E.00886
G1 X7.773 Y-1.824 E.00748
G2 X7.295 Y-1.664 I.081 J1.038 E.02639
;WIDTH:0.443572
G1 X7.057 Y-1.552 E.01242
;WIDTH:0.406229
G1 X6.727 Y-1.429 E.01499
G1 X6.417 Y-1.483 E.01341
;WIDTH:0.399999
G1 X6.167 Y-1.649 E.01253
G1 X5.944 Y-1.966 E.01625
G1 X5.861 Y-2.306 E.01465
